src/Widgets/DataWidget/thumbnail.svg

<svg viewBox="0 0 150 100" fill="none" xmlns="http://www.w3.org/2000/svg">
<g id="data-list">
<path id="Rectangle 1" d="M16 15C16 12.7909 17.7909 11 20 11H131C132.657 11 134 12.3431 134 14V86C134 87.6569 132.657 89 131 89H19C17.3431 89 16 87.6569 16 86V15Z" stroke="#AAAAAA" stroke-width="2" stroke-linecap="round" stroke-dasharray="5 5"/>
<g id="Badge">
<g clip-path="url(#clip0_5_63)">
<rect x="23" y="18" width="36" height="13" rx="6.5" fill="#FF9F00"/>
<path id="DATA" d="M28.7 28.5V21.3H31.03C31.0867 21.3 31.2033 21.3017 31.38 21.305C31.5567 21.3083 31.7267 21.32 31.89 21.34C32.47 21.41 32.9617 21.6117 33.365 21.945C33.7683 22.2783 34.075 22.7017 34.285 23.215C34.495 23.7283 34.6 24.29 34.6 24.9C34.6 25.51 34.495 26.0717 34.285 26.585C34.075 27.0983 33.7683 27.5217 33.365 27.855C32.9617 28.1883 32.47 28.39 31.89 28.46C31.7267 28.48 31.5567 28.4917 31.38 28.495C31.2033 28.4983 31.0867 28.5 31.03 28.5H28.7ZM30.08 27.22H31.03C31.12 27.22 31.2417 27.2183 31.395 27.215C31.5483 27.2083 31.6867 27.1933 31.81 27.17C32.1233 27.1067 32.3783 26.96 32.575 26.73C32.775 26.5 32.9217 26.2233 33.015 25.9C33.1117 25.5767 33.16 25.2433 33.16 24.9C33.16 24.54 33.11 24.1983 33.01 23.875C32.9133 23.5517 32.765 23.2783 32.565 23.055C32.365 22.8317 32.1133 22.69 31.81 22.63C31.6867 22.6033 31.5483 22.5883 31.395 22.585C31.2417 22.5817 31.12 22.58 31.03 22.58H30.08V27.22ZM35.1043 28.5L37.3043 21.3H39.3343L41.5343 28.5H40.1343L38.1743 22.15H38.4343L36.5043 28.5H35.1043ZM36.4243 27V25.73H40.2243V27H36.4243ZM43.5048 28.5V22.57H41.2348V21.3H47.1348V22.57H44.8648V28.5H43.5048ZM47.243 28.5L49.443 21.3H51.473L53.673 28.5H52.273L50.313 22.15H50.573L48.643 28.5H47.243ZM48.563 27V25.73H52.363V27H48.563Z" fill="white"/>
</g>
</g>
<g id="Ebene_1" clip-path="url(#clip1_5_63)">
<g id="Group" opacity="0.75">
<path id="Vector" d="M124.36 43.75C124.74 43.75 125.05 44.06 125.05 44.44V79.04C125.05 79.42 124.74 79.73 124.36 79.73H26.44C26.06 79.73 25.75 79.42 25.75 79.04V44.44C25.75 44.06 26.06 43.75 26.44 43.75H124.36ZM124.36 41H26.44C24.54 41 23 42.54 23 44.44V79.04C23 80.94 24.54 82.48 26.44 82.48H124.36C126.26 82.48 127.8 80.94 127.8 79.04V44.44C127.8 42.54 126.26 41 124.36 41Z" fill="#AAAAAA"/>
</g>
<g id="Group_2" opacity="0.25">
<path id="Vector_2" d="M124.36 41H26.44C24.5401 41 23 42.5401 23 44.44V79.04C23 80.9399 24.5401 82.48 26.44 82.48H124.36C126.26 82.48 127.8 80.9399 127.8 79.04V44.44C127.8 42.5401 126.26 41 124.36 41Z" fill="#AAAAAA" fill-opacity="0.75"/>
</g>
<path id="Vector_3" opacity="0.75" d="M25.76 61.74H125.04" stroke="#AAAAAA" stroke-width="3"/>
<path id="Vector_4" d="M32.31 52.11L35.75 56.11L42.06 48.77" stroke="#AAAAAA" stroke-width="2" stroke-linecap="round" stroke-linejoin="round"/>
<path id="Vector_5" d="M32.31 70.32L35.75 74.32L42.06 66.98" stroke="#AAAAAA" stroke-width="2" stroke-linecap="round" stroke-linejoin="round"/>
</g>
</g>
<defs>
<clipPath id="clip0_5_63">
<rect x="23" y="18" width="36" height="13" rx="6.5" fill="white"/>
</clipPath>
<clipPath id="clip1_5_63">
<rect width="104.8" height="41.48" fill="white" transform="translate(23 41)"/>
</clipPath>
</defs>
</svg>

<svg xmlns="http://www.w3.org/2000/svg" fill="none" viewBox="0 0 150 100"><path stroke="#AAA" stroke-dasharray="5 5" stroke-linecap="round" stroke-width="2" d="M16 15a4 4 0 0 1 4-4h111a3 3 0 0 1 3 3v72a3 3 0 0 1-3 3H19a3 3 0 0 1-3-3z"/><g clip-path="url(#a)"><rect width="36" height="13" x="23" y="18" fill="#FF9F00" rx="6.5"/><path fill="#fff" d="M28.7 28.5v-7.2h2.33l.35.005q.266.005.51.035.87.105 1.475.605t.92 1.27.315 1.685-.315 1.685-.92 1.27-1.475.605q-.244.03-.51.035l-.35.005zm1.38-1.28h.95q.135 0 .365-.005a3 3 0 0 0 .415-.045 1.32 1.32 0 0 0 .765-.44q.3-.345.44-.83a3.5 3.5 0 0 0 .145-1q0-.54-.15-1.025a2.1 2.1 0 0 0-.445-.82 1.33 1.33 0 0 0-.755-.425 2 2 0 0 0-.415-.045l-.365-.005h-.95zm5.024 1.28 2.2-7.2h2.03l2.2 7.2h-1.4l-1.96-6.35h.26l-1.93 6.35zm1.32-1.5v-1.27h3.8V27zm7.08 1.5v-5.93h-2.27V21.3h5.9v1.27h-2.27v5.93zm3.739 0 2.2-7.2h2.03l2.2 7.2h-1.4l-1.96-6.35h.26l-1.93 6.35zm1.32-1.5v-1.27h3.8V27z"/></g><g clip-path="url(#b)"><path fill="#AAA" d="M124.36 43.75c.38 0 .69.31.69.69v34.6c0 .38-.31.69-.69.69H26.44c-.38 0-.69-.31-.69-.69v-34.6c0-.38.31-.69.69-.69zm0-2.75H26.44A3.44 3.44 0 0 0 23 44.44v34.6c0 1.9 1.54 3.44 3.44 3.44h97.92c1.9 0 3.44-1.54 3.44-3.44v-34.6c0-1.9-1.54-3.44-3.44-3.44" opacity=".75"/><path fill="#AAA" fill-opacity=".75" d="M124.36 41H26.44A3.44 3.44 0 0 0 23 44.44v34.6c0 1.9 1.54 3.44 3.44 3.44h97.92c1.9 0 3.44-1.54 3.44-3.44v-34.6c0-1.9-1.54-3.44-3.44-3.44" opacity=".25"/><path stroke="#AAA" stroke-width="3" d="M25.76 61.74h99.28" opacity=".75"/><path stroke="#AAA" stroke-linecap="round" stroke-linejoin="round" stroke-width="2" d="m32.31 52.11 3.44 4 6.31-7.34m-9.75 21.55 3.44 4 6.31-7.34"/></g><defs><clipPath id="a"><rect width="36" height="13" x="23" y="18" fill="#fff" rx="6.5"/></clipPath><clipPath id="b"><path fill="#fff" d="M23 41h104.8v41.48H23z"/></clipPath></defs></svg>
